!!!OTL: SCHNEIDER DEN MAG ICH NET
!!!ARE: Europa, Mitteleuropa, Deutschland, Hessen, Hanau
!!!SCT: E0842
!!!YEM: Copyright 1995, estate of Helmut Schaffrath.
**kern
*ICvox
*Ivox
*M3/8
*k[b-]
*F:
=1
{8f
8a
8cc
=2
8.cc
16ff
8cc}
=3
{8dd
8ff
8dd
=4
4cc
8r}
=5
{16dd
16dd
16dd
16dd
16cc
16b-
=6
8cc
8cc
8a}
=7
{8g
16b-
16b-
8g
=8
8f
8dd
8cc}
=9
{16dd
16dd
16dd
16dd
16cc
16b-
=10
8cc
8cc
8a}
=11
{8g
16b-
16b-
8g
=12
4f
8r}
==
!!!AGN: Hochzeits -, Ehestands - Lied
!!!ONB: ESAC (Essen Associative Code) Database: ERK2
!!!AMT: simple triple
!!!AIN: vox
!!!EED: Helmut Schaffrath
!!!EEV: 1.0
*-
